X: 7879
T: Con Casey's
R: jig
M: 6/8
K: Aminor
|:"Am"EAE AEA|"G"G3 GEG|"Am"EAE AEd|AGE EDC|
EAE AEA|GGG GAB|"F"cBA"G" BGE|"D"EDC D3:|
|:"G"fed "Am"ecA|"Em"GEE "C"Gce|"G"fed "Am"ecA|"Em"GEG "F"A2e|
"G"fed "Am"ecA|"Em"GEE "F"GAB|"C"cBA "G"BGE|"D"EDC D3:|

